X: 10053
T: WILLIE WAS A WANTON WAG.
%R: march, reel
B: W. Hamilton "Universal Tune-Book" Vol. 1 Glasgow 1844 p.5 #3
S: http://imslp.org/wiki/Hamilton's_Universal_Tune-Book_(Various)
Z: 2016 John Chambers <jc:trillian.mit.edu>
M: 2/4
L: 1/16
K: C
% - - - - - - - - - - - - - - - - - - - - - - - - -
(GF) |\
E2G2 G2(AB) | c3dc2G2 | E2G2 G2e2 | (fe)(dc) A4 |\
E2G2 G2(AB) | c3dc2G2 | E2G2 G2e2 | (ed)(cB) c2 :|
|: (gf) |\
e2g2 d2e2 | c3d (fe)(dc) | e2g2 d3e | (fe)(dc) A2(gf) |\
e2g2 d2e2 | (cB)(cd) (ed)(ef) | g2G2 G2(gf) | (ed)(cB) c2 :|
% - - - - - - - - - - - - - - - - - - - - - - - - -

%%sep 1 1 500
%%sep 1 1 500

